src/assets/duotone/NotificationCircle.svg

<?xml version="1.0" encoding="UTF-8"?>
<svg width="24" height="24" viewBox="0 0 24 24" xmlns="http://www.w3.org/2000/svg">
 <path d="m19 8c1.6569 0 3-1.3432 3-3s-1.3431-3-3-3-3 1.3432-3 3 1.3431 3 3 3z"/>
 <path d="m19 9.5c-2.48 0-4.5-2.02-4.5-4.5 0-0.91 0.27-1.75 0.74-2.45-1.02-0.35-2.11-0.55-3.24-0.55-5.51 0-10 4.49-10 10s4.49 10 10 10 10-4.49 10-10c0-1.13-0.2-2.22-0.55-3.24-0.7 0.47-1.54 0.74-2.45 0.74z" opacity=".4"/>
</svg>

<svg width="24" height="24" viewBox="0 0 24 24"  xmlns="http://www.w3.org/2000/svg">
<path d="M19 8C20.6569 8 22 6.65685 22 5C22 3.34315 20.6569 2 19 2C17.3431 2 16 3.34315 16 5C16 6.65685 17.3431 8 19 8Z" />
<path opacity="0.4" d="M19 9.5C16.52 9.5 14.5 7.48 14.5 5C14.5 4.09 14.77 3.25 15.24 2.55C14.22 2.2 13.13 2 12 2C6.49 2 2 6.49 2 12C2 17.51 6.49 22 12 22C17.51 22 22 17.51 22 12C22 10.87 21.8 9.78 21.45 8.76C20.75 9.23 19.91 9.5 19 9.5Z" />
</svg>
